;FLAVOR:Marlin
;TIME:1846
;Filament used: 1.07012m
;Layer height: 0.2
;MINX:89.3
;MINY:98.25
;MINZ:0.35
;MAXX:145.7
;MAXY:124.65
;MAXZ:4.15
;Generated with Cura_SteamEngine main
M140 S85
M105
M190 S85
M104 S230
M105
M109 S230
M82 ;absolute extrusion mode
; Ender 3 Custom Start G-code
G92 E0 ; Reset Extruder
G28 ; Home all axes
G1 Z2.0 F3000 ; Move Z Axis up little to prevent scratching of Heat Bed
G1 X0.1 Y20 Z0.3 F5000.0 ; Move to start position
G1 X0.1 Y200.0 Z0.3 F1500.0 E15 ; Draw the first line
G1 X0.4 Y200.0 Z0.3 F5000.0 ; Move to side a little
G1 X0.4 Y20 Z0.3 F1500.0 E30 ; Draw the second line
G92 E0 ; Reset Extruder
G1 Z2.0 F3000 ; Move Z Axis up little to prevent scratching of Heat Bed
G1 X5 Y20 Z0.3 F5000.0 ; Move over to prevent blob squish
G92 E0
G92 E0
G1 F3000 E-7
;LAYER_COUNT:20
;LAYER:0
M107
G0 F9000 X91.973 Y100.399 Z0.35
G0 X89.3 Y106.338
;TYPE:SKIRT
G1 F3000 E0
G1 F1800 X89.361 Y105.494 E0.04925
G1 X89.422 Y105.071 E0.07413
G1 X89.58 Y104.346 E0.11732
G1 X89.701 Y103.935 E0.14226
G1 X89.96 Y103.242 E0.18532
G1 X90.135 Y102.858 E0.20988
G1 X90.491 Y102.204 E0.25322
G1 X90.723 Y101.842 E0.27825
G1 X91.167 Y101.248 E0.32141
G1 X91.449 Y100.923 E0.34646
G1 X91.973 Y100.399 E0.38959
G1 X92.298 Y100.117 E0.41463
G1 X92.892 Y99.673 E0.4578
G1 X93.254 Y99.441 E0.48283
G1 X93.908 Y99.085 E0.52617
G1 X94.291 Y98.91 E0.55068
G1 X94.981 Y98.652 E0.59355
G1 X95.392 Y98.531 E0.61849
G1 X96.12 Y98.372 E0.66186
G1 X96.544 Y98.311 E0.6868
G1 X97.388 Y98.25 E0.73605
G1 X137.612 Y98.25 E3.0773
G1 X138.456 Y98.311 E3.12655
G1 X138.88 Y98.372 E3.15148
G1 X139.608 Y98.531 E3.19485
G1 X140.019 Y98.652 E3.21979
G1 X140.709 Y98.91 E3.26267
G1 X141.092 Y99.085 E3.28718
G1 X141.746 Y99.441 E3.33052
G1 X142.108 Y99.673 E3.35555
G1 X142.702 Y100.117 E3.39871
G1 X143.027 Y100.399 E3.42376
G1 X143.551 Y100.923 E3.46689
G1 X143.833 Y101.248 E3.49193
G1 X144.277 Y101.842 E3.5351
G1 X144.509 Y102.204 E3.56013
G1 X144.865 Y102.858 E3.60347
G1 X145.04 Y103.241 E3.62798
G1 X145.298 Y103.931 E3.67085
G1 X145.419 Y104.342 E3.69579
G1 X145.578 Y105.07 E3.73916
G1 X145.639 Y105.493 E3.76404
G1 X145.7 Y106.335 E3.81317
G1 X145.7 Y116.562 E4.40844
G1 X145.639 Y117.406 E4.45769
G1 X145.578 Y117.829 E4.48257
G1 X145.42 Y118.554 E4.52576
G1 X145.299 Y118.965 E4.5507
G1 X145.04 Y119.658 E4.59376
G1 X144.865 Y120.042 E4.61832
G1 X144.509 Y120.696 E4.66166
G1 X144.277 Y121.058 E4.68669
G1 X143.833 Y121.652 E4.72985
G1 X143.551 Y121.977 E4.7549
G1 X143.027 Y122.501 E4.79803
G1 X142.702 Y122.783 E4.82307
G1 X142.108 Y123.227 E4.86624
G1 X141.745 Y123.46 E4.89135
G1 X141.09 Y123.816 E4.93474
G1 X140.709 Y123.989 E4.95909
G1 X140.02 Y124.247 E5.00192
G1 X139.608 Y124.369 E5.02693
G1 X138.88 Y124.528 E5.0703
G1 X138.456 Y124.589 E5.09523
G1 X137.612 Y124.65 E5.14448
G1 X97.388 Y124.65 E7.48573
G1 X96.544 Y124.589 E7.53498
G1 X96.12 Y124.528 E7.55992
G1 X95.392 Y124.369 E7.60329
G1 X94.98 Y124.247 E7.6283
G1 X94.291 Y123.989 E7.67112
G1 X93.91 Y123.816 E7.69548
G1 X93.255 Y123.46 E7.73887
G1 X92.892 Y123.227 E7.76398
G1 X92.298 Y122.783 E7.80714
G1 X91.973 Y122.501 E7.83219
G1 X91.449 Y121.977 E7.87532
G1 X91.167 Y121.652 E7.90036
G1 X90.723 Y121.058 E7.94353
G1 X90.491 Y120.696 E7.96856
G1 X90.135 Y120.042 E8.0119
G1 X89.96 Y119.658 E8.03646
G1 X89.701 Y118.965 E8.07952
G1 X89.58 Y118.554 E8.10446
G1 X89.422 Y117.829 E8.14765
G1 X89.361 Y117.407 E8.17246
G1 X89.3 Y116.565 E8.2216
G1 X89.3 Y106.338 E8.81687
G0 F9000 X89.7 Y106.352
G1 F1800 X89.76 Y105.522 E8.8653
G1 X89.813 Y105.156 E8.88683
G1 X89.971 Y104.431 E8.93002
G1 X90.076 Y104.075 E8.95162
G1 X90.335 Y103.382 E8.99468
G1 X90.486 Y103.049 E9.01596
G1 X90.842 Y102.395 E9.0593
G1 X91.043 Y102.081 E9.081
G1 X91.487 Y101.487 E9.12417
G1 X91.732 Y101.206 E9.14587
G1 X92.256 Y100.682 E9.189
G1 X92.537 Y100.437 E9.2107
G1 X93.131 Y99.993 E9.25387
G1 X93.445 Y99.792 E9.27557
G1 X94.099 Y99.436 E9.31891
G1 X94.431 Y99.285 E9.34014
G1 X95.121 Y99.027 E9.38301
G1 X95.477 Y98.922 E9.40462
G1 X96.205 Y98.763 E9.44799
G1 X96.572 Y98.71 E9.46957
G1 X97.402 Y98.65 E9.51801
G1 X137.598 Y98.65 E11.85763
G1 X138.428 Y98.71 E11.90606
G1 X138.795 Y98.763 E11.92765
G1 X139.523 Y98.922 E11.97102
G1 X139.879 Y99.027 E11.99262
G1 X140.569 Y99.285 E12.0355
G1 X140.901 Y99.436 E12.05673
G1 X141.555 Y99.792 E12.10007
G1 X141.869 Y99.993 E12.12177
G1 X142.463 Y100.437 E12.16493
G1 X142.744 Y100.682 E12.18663
G1 X143.268 Y101.206 E12.22977
G1 X143.513 Y101.487 E12.25147
G1 X143.957 Y102.081 E12.29463
G1 X144.158 Y102.395 E12.31633
G1 X144.514 Y103.049 E12.35967
G1 X144.665 Y103.381 E12.3809
G1 X144.923 Y104.071 E12.42378
G1 X145.028 Y104.427 E12.44538
G1 X145.187 Y105.155 E12.48875
G1 X145.24 Y105.522 E12.51034
G1 X145.3 Y106.351 E12.55871
G1 X145.3 Y116.548 E13.15223
G1 X145.24 Y117.378 E13.20067
G1 X145.187 Y117.744 E13.2222
G1 X145.029 Y118.469 E13.26538
G1 X144.924 Y118.825 E13.28699
G1 X144.665 Y119.518 E13.33005
G1 X144.514 Y119.851 E13.35133
G1 X144.158 Y120.505 E13.39467
G1 X143.957 Y120.819 E13.41637
G1 X143.513 Y121.413 E13.45954
G1 X143.268 Y121.694 E13.48124
G1 X142.744 Y122.218 E13.52437
G1 X142.463 Y122.463 E13.54607
G1 X141.869 Y122.907 E13.58923
G1 X141.554 Y123.108 E13.61098
G1 X140.899 Y123.464 E13.65437
G1 X140.569 Y123.615 E13.6755
G1 X139.88 Y123.873 E13.71832
G1 X139.523 Y123.978 E13.73998
G1 X138.795 Y124.137 E13.78335
G1 X138.428 Y124.19 E13.80494
G1 X137.598 Y124.25 E13.85337
G1 X97.402 Y124.25 E16.19299
G1 X96.572 Y124.19 E16.24143
G1 X96.205 Y124.137 E16.26301
G1 X95.477 Y123.978 E16.30638
G1 X95.12 Y123.873 E16.32804
G1 X94.431 Y123.615 E16.37086
G1 X94.101 Y123.464 E16.39199
G1 X93.446 Y123.108 E16.43538
G1 X93.131 Y122.907 E16.45713
G1 X92.537 Y122.463 E16.50029
G1 X92.256 Y122.218 E16.52199
G1 X91.732 Y121.694 E16.56512
G1 X91.487 Y121.413 E16.58682
G1 X91.043 Y120.819 E16.62999
G1 X90.842 Y120.505 E16.65169
G1 X90.486 Y119.851 E16.69503
G1 X90.335 Y119.518 E16.71631
G1 X90.076 Y118.825 E16.75937
G1 X89.971 Y118.469 E16.78098
G1 X89.813 Y117.744 E16.82417
G1 X89.76 Y117.378 E16.84569
G1 X89.7 Y116.549 E16.89407
G1 X89.7 Y106.352 E17.48759
G0 F9000 X90.1 Y106.443
G1 F1800 X90.159 Y105.551 E17.53962
G1 X90.203 Y105.242 E17.55779
G1 X90.361 Y104.517 E17.60098
G1 X90.45 Y104.215 E17.6193
G1 X90.709 Y103.522 E17.66236
G1 X90.838 Y103.24 E17.68041
G1 X91.194 Y102.586 E17.72375
G1 X91.364 Y102.321 E17.74208
G1 X91.808 Y101.727 E17.78524
G1 X92.014 Y101.488 E17.80361
G1 X92.538 Y100.964 E17.84674
G1 X92.777 Y100.758 E17.86511
G1 X93.371 Y100.314 E17.90827
G1 X93.636 Y100.144 E17.9266
G1 X94.29 Y99.788 E17.96994
G1 X94.571 Y99.659 E17.98794
G1 X95.261 Y99.401 E18.03081
G1 X95.563 Y99.313 E18.04912
G1 X96.291 Y99.154 E18.09249
G1 X96.601 Y99.109 E18.11073
G1 X97.493 Y99.05 E18.16276
G1 X137.507 Y99.05 E20.49178
G1 X138.399 Y99.109 E20.54382
G1 X138.709 Y99.154 E20.56205
G1 X139.437 Y99.313 E20.60542
G1 X139.739 Y99.401 E20.62373
G1 X140.429 Y99.659 E20.66661
G1 X140.71 Y99.788 E20.6846
G1 X141.364 Y100.144 E20.72794
G1 X141.629 Y100.314 E20.74627
G1 X142.223 Y100.758 E20.78944
G1 X142.462 Y100.964 E20.8078
G1 X142.986 Y101.488 E20.85093
G1 X143.192 Y101.727 E20.8693
G1 X143.636 Y102.321 E20.91246
G1 X143.806 Y102.586 E20.93079
G1 X144.162 Y103.24 E20.97413
G1 X144.291 Y103.521 E20.99213
G1 X144.549 Y104.211 E21.035
G1 X144.637 Y104.513 E21.05331
G1 X144.796 Y105.241 E21.09668
G1 X144.841 Y105.551 E21.11492
G1 X144.9 Y106.442 E21.16689
G1 X144.9 Y116.457 E21.74982
G1 X144.841 Y117.349 E21.80185
G1 X144.797 Y117.658 E21.82002
G1 X144.639 Y118.383 E21.86321
G1 X144.55 Y118.685 E21.88153
G1 X144.291 Y119.378 E21.92459
G1 X144.162 Y119.66 E21.94264
G1 X143.806 Y120.314 E21.98598
G1 X143.636 Y120.579 E22.00431
G1 X143.192 Y121.173 E22.04747
G1 X142.986 Y121.412 E22.06584
G1 X142.462 Y121.936 E22.10897
G1 X142.223 Y122.142 E22.12734
G1 X141.629 Y122.586 E22.1705
G1 X141.363 Y122.757 E22.18891
G1 X140.708 Y123.113 E22.2323
G1 X140.428 Y123.24 E22.2502
G1 X139.739 Y123.498 E22.29302
G1 X139.437 Y123.587 E22.31134
G1 X138.709 Y123.746 E22.35472
G1 X138.399 Y123.791 E22.37295
G1 X137.507 Y123.85 E22.42498
G1 X97.493 Y123.85 E24.75401
G1 X96.601 Y123.791 E24.80604
G1 X96.291 Y123.746 E24.82427
G1 X95.563 Y123.587 E24.86764
G1 X95.261 Y123.498 E24.88597
G1 X94.572 Y123.24 E24.92879
G1 X94.292 Y123.113 E24.94669
G1 X93.637 Y122.757 E24.99008
G1 X93.371 Y122.586 E25.00848
G1 X92.777 Y122.142 E25.05165
G1 X92.538 Y121.936 E25.07001
G1 X92.014 Y121.412 E25.11315
G1 X91.808 Y121.173 E25.13151
G1 X91.364 Y120.579 E25.17468
G1 X91.194 Y120.314 E25.193
G1 X90.838 Y119.66 E25.23634
G1 X90.709 Y119.378 E25.25439
G1 X90.45 Y118.685 E25.29745
G1 X90.361 Y118.383 E25.31578
G1 X90.203 Y117.658 E25.35897
G1 X90.159 Y117.349 E25.37714
G1 X90.1 Y116.458 E25.42911
G1 X90.1 Y106.443 E26.01204
G0 F9000 X90.5 Y106.443
G1 F1800 X90.558 Y105.58 E26.06238
G1 X90.594 Y105.327 E26.07725
G1 X90.752 Y104.602 E26.12044
G1 X90.825 Y104.355 E26.13544
G1 X91.084 Y103.662 E26.1785
G1 X91.189 Y103.431 E26.19327
G1 X91.545 Y102.777 E26.23661
G1 X91.684 Y102.56 E26.25161
G1 X92.128 Y101.966 E26.29477
G1 X92.297 Y101.771 E26.30979
G1 X92.821 Y101.247 E26.35292
G1 X93.016 Y101.078 E26.36794
G1 X93.61 Y100.634 E26.41111
G1 X93.827 Y100.495 E26.42611
G1 X94.481 Y100.139 E26.46945
G1 X94.712 Y100.034 E26.48422
G1 X95.402 Y99.776 E26.52709
G1 X95.648 Y99.703 E26.54203
G1 X96.376 Y99.544 E26.5854
G1 X96.63 Y99.508 E26.60033
G1 X97.493 Y99.45 E26.65068
G1 X137.507 Y99.45 E28.9797
G1 X138.37 Y99.508 E29.03005
G1 X138.624 Y99.544 E29.04498
G1 X139.352 Y99.703 E29.08835
G1 X139.598 Y99.776 E29.10329
G1 X140.288 Y100.034 E29.14616
G1 X140.519 Y100.139 E29.16093
G1 X141.173 Y100.495 E29.20427
G1 X141.39 Y100.634 E29.21927
G1 X141.984 Y101.078 E29.26244
G1 X142.179 Y101.247 E29.27746
G1 X142.703 Y101.771 E29.32059
G1 X142.872 Y101.966 E29.33561
G1 X143.316 Y102.56 E29.37878
G1 X143.455 Y102.777 E29.39378
G1 X143.811 Y103.431 E29.43712
G1 X143.916 Y103.662 E29.45188
G1 X144.174 Y104.352 E29.49476
G1 X144.247 Y104.598 E29.5097
G1 X144.406 Y105.326 E29.55307
G1 X144.442 Y105.58 E29.568
G1 X144.5 Y106.442 E29.61829
G1 X144.5 Y116.457 E30.20121
G1 X144.442 Y117.32 E30.25156
G1 X144.406 Y117.573 E30.26643
G1 X144.248 Y118.298 E30.30962
G1 X144.175 Y118.545 E30.32461
G1 X143.916 Y119.238 E30.36767
G1 X143.811 Y119.469 E30.38244
G1 X143.455 Y120.123 E30.42578
G1 X143.316 Y120.34 E30.44078
G1 X142.872 Y120.934 E30.48395
G1 X142.703 Y121.129 E30.49897
G1 X142.179 Y121.653 E30.5421
G1 X141.984 Y121.822 E30.55712
G1 X141.39 Y122.266 E30.60029
G1 X141.172 Y122.406 E30.61537
G1 X140.517 Y122.762 E30.65876
G1 X140.288 Y122.866 E30.6734
G1 X139.599 Y123.124 E30.71622
G1 X139.352 Y123.197 E30.73121
G1 X138.624 Y123.356 E30.77458
G1 X138.37 Y123.392 E30.78951
G1 X137.507 Y123.45 E30.83986
G1 X97.493 Y123.45 E33.16888
G1 X96.63 Y123.392 E33.21923
G1 X96.376 Y123.356 E33.23416
G1 X95.648 Y123.197 E33.27753
G1 X95.401 Y123.124 E33.29252
G1 X94.712 Y122.866 E33.33535
G1 X94.483 Y122.762 E33.34999
G1 X93.828 Y122.406 E33.39338
G1 X93.61 Y122.266 E33.40846
G1 X93.016 Y121.822 E33.45162
G1 X92.821 Y121.653 E33.46664
G1 X92.297 Y121.129 E33.50977
G1 X92.128 Y120.934 E33.52479
G1 X91.684 Y120.34 E33.56796
G1 X91.545 Y120.123 E33.58296
G1 X91.189 Y119.469 E33.6263
G1 X91.084 Y119.238 E33.64107
G1 X90.825 Y118.545 E33.68413
G1 X90.752 Y118.298 E33.69912
G1 X90.594 Y117.573 E33.74231
G1 X90.558 Y117.32 E33.75718
G1 X90.5 Y116.458 E33.80747
G1 X90.5 Y106.443 E34.3904
G0 F9000 X90.9 Y106.443
G1 F1800 X90.964 Y105.509 E34.44489
G1 X91.164 Y104.592 E34.49952
G1 X91.495 Y103.706 E34.55457
G1 X91.942 Y102.884 E34.60903
G1 X92.511 Y102.123 E34.66434
G1 X93.173 Y101.461 E34.71883
G1 X93.934 Y100.892 E34.77413
G1 X94.756 Y100.445 E34.8286
G1 X95.64 Y100.114 E34.88354
G1 X96.558 Y99.914 E34.93822
G1 X97.493 Y99.85 E34.99277
G1 X137.507 Y99.85 E37.3218
G1 X138.442 Y99.914 E37.37635
G1 X139.36 Y100.114 E37.43103
G1 X140.244 Y100.445 E37.48597
G1 X141.066 Y100.892 E37.54044
G1 X141.827 Y101.461 E37.59574
G1 X142.489 Y102.123 E37.65023
G1 X143.058 Y102.884 E37.70554
G1 X143.505 Y103.706 E37.76
G1 X143.836 Y104.59 E37.81494
G1 X144.036 Y105.508 E37.86963
G1 X144.1 Y106.442 E37.92412
G1 X144.1 Y116.457 E38.50705
G1 X144.036 Y117.391 E38.56154
G1 X143.836 Y118.308 E38.61617
G1 X143.505 Y119.194 E38.67122
G1 X143.058 Y120.016 E38.72568
G1 X142.489 Y120.777 E38.78099
G1 X141.827 Y121.439 E38.83548
G1 X141.066 Y122.008 E38.89079
G1 X140.241 Y122.456 E38.94543
G1 X139.363 Y122.785 E39
G1 X138.443 Y122.986 E39.05481
G1 X137.507 Y123.05 E39.10942
G1 X97.493 Y123.05 E41.43845
G1 X96.557 Y122.986 E41.49305
G1 X95.637 Y122.785 E41.54786
G1 X94.759 Y122.456 E41.60244
G1 X93.934 Y122.008 E41.65708
G1 X93.173 Y121.439 E41.71239
G1 X92.511 Y120.777 E41.76688
G1 X91.942 Y120.016 E41.82219
G1 X91.495 Y119.194 E41.87665
G1 X91.164 Y118.308 E41.9317
G1 X90.964 Y117.391 E41.98633
G1 X90.9 Y116.458 E42.04076
G1 X90.9 Y106.443 E42.62369
G0 F9000 X91.3 Y106.443
G1 F1800 X91.361 Y105.566 E42.67486
G1 X91.55 Y104.7 E42.72645
G1 X91.856 Y103.879 E42.77745
G1 X92.284 Y103.094 E42.82949
G1 X92.81 Y102.39 E42.88064
G1 X93.44 Y101.76 E42.9325
G1 X94.144 Y101.234 E42.98365
G1 X94.929 Y100.806 E43.03569
G1 X95.747 Y100.501 E43.0865
G1 X96.615 Y100.311 E43.13822
G1 X97.493 Y100.25 E43.18945
G1 X137.507 Y100.25 E45.51847
G1 X138.385 Y100.311 E45.5697
G1 X139.253 Y100.501 E45.62142
G1 X140.071 Y100.806 E45.67223
G1 X140.856 Y101.234 E45.72427
G1 X141.56 Y101.76 E45.77542
G1 X142.19 Y102.39 E45.82728
G1 X142.716 Y103.094 E45.87843
G1 X143.144 Y103.879 E45.93047
G1 X143.449 Y104.697 E45.98129
G1 X143.639 Y105.565 E46.03301
G1 X143.7 Y106.442 E46.08418
G1 X143.7 Y116.457 E46.6671
G1 X143.639 Y117.334 E46.71827
G1 X143.45 Y118.2 E46.76986
G1 X143.144 Y119.021 E46.82086
G1 X142.716 Y119.806 E46.8729
G1 X142.19 Y120.51 E46.92405
G1 X141.56 Y121.14 E46.97591
G1 X140.851 Y121.67 E47.02743
G1 X140.079 Y122.089 E47.07856
G1 X139.25 Y122.4 E47.1301
G1 X138.384 Y122.589 E47.18169
G1 X137.507 Y122.65 E47.23286
G1 X97.493 Y122.65 E49.56188
G1 X96.616 Y122.589 E49.61305
G1 X95.75 Y122.4 E49.66464
G1 X94.921 Y122.089 E49.71618
G1 X94.149 Y121.67 E49.76731
G1 X93.44 Y121.14 E49.81883
G1 X92.81 Y120.51 E49.87069
G1 X92.284 Y119.806 E49.92184
G1 X91.856 Y119.021 E49.97388
G1 X91.55 Y118.2 E50.02488
G1 X91.361 Y117.335 E50.07641
G1 X91.3 Y116.458 E50.12758
G1 X91.3 Y106.443 E50.71051
G0 F9000 X91.7 Y106.443
G1 F1800 X91.758 Y105.623 E50.75835
G1 X91.934 Y104.814 E50.80654
G1 X92.223 Y104.041 E50.85458
G1 X92.62 Y103.312 E50.90289
G1 X93.113 Y102.653 E50.9508
G1 X93.703 Y102.063 E50.99936
G1 X94.362 Y101.57 E51.04727
G1 X95.091 Y101.173 E51.09558
G1 X95.861 Y100.885 E51.14343
G1 X96.673 Y100.708 E51.1918
G1 X97.493 Y100.65 E51.23965
G1 X137.507 Y100.65 E53.56868
G1 X138.327 Y100.708 E53.61652
G1 X139.139 Y100.885 E53.6649
G1 X139.909 Y101.173 E53.71275
G1 X140.638 Y101.57 E53.76106
G1 X141.297 Y102.063 E53.80896
G1 X141.887 Y102.653 E53.85753
G1 X142.38 Y103.312 E53.90543
G1 X142.777 Y104.041 E53.95375
G1 X143.065 Y104.811 E54.0016
G1 X143.242 Y105.623 E54.04997
G1 X143.3 Y106.442 E54.09776
G1 X143.3 Y116.457 E54.68069
G1 X143.242 Y117.277 E54.72853
G1 X143.066 Y118.086 E54.77672
G1 X142.777 Y118.859 E54.82476
G1 X142.38 Y119.588 E54.87307
G1 X141.887 Y120.247 E54.92098
G1 X141.297 Y120.837 E54.96954
G1 X140.637 Y121.33 E55.01749
G1 X139.908 Y121.727 E55.06581
G1 X139.139 Y122.015 E55.1136
G1 X138.327 Y122.192 E55.16198
G1 X137.507 Y122.25 E55.20982
G1 X97.493 Y122.25 E57.53885
G1 X96.673 Y122.192 E57.58669
G1 X95.861 Y122.015 E57.63507
G1 X95.092 Y121.727 E57.68286
G1 X94.363 Y121.33 E57.73118
G1 X93.703 Y120.837 E57.77913
G1 X93.113 Y120.247 E57.82769
G1 X92.62 Y119.588 E57.8756
G1 X92.223 Y118.859 E57.92391
G1 X91.934 Y118.086 E57.97195
G1 X91.758 Y117.277 E58.02014
G1 X91.7 Y116.458 E58.06793
G1 X91.7 Y106.443 E58.65085
G0 F9000 X92.101 Y106.429
G1 F1800 X92.158 Y105.667 E58.69533
G1 X92.324 Y104.915 E58.74015
G1 X92.594 Y104.196 E58.78485
G1 X92.95 Y103.542 E58.8282
G1 X93.41 Y102.924 E58.87304
G1 X93.974 Y102.36 E58.91946
