;FLAVOR:Marlin
;TIME:10978
;Filament used: 5.80419m
;Layer height: 0.2
;MINX:91.7
;MINY:85.7
;MINZ:0.2
;MAXX:143.3
;MAXY:149.3
;MAXZ:48
;Generated with Cura_SteamEngine main
M140 S70
M105
M190 S70
M104 S235
M105
M109 S235
M82 ;absolute extrusion mode
; Ender 3 Custom Start G-code
G92 E0 ; Reset Extruder
G28 ; Home all axes
G1 Z2.0 F3000 ; Move Z Axis up little to prevent scratching of Heat Bed
G1 X0.1 Y20 Z0.3 F5000.0 ; Move to start position
G1 X0.1 Y200.0 Z0.3 F1500.0 E15 ; Draw the first line
G1 X0.4 Y200.0 Z0.3 F5000.0 ; Move to side a little
G1 X0.4 Y20 Z0.3 F1500.0 E30 ; Draw the second line
G92 E0 ; Reset Extruder
G1 Z2.0 F3000 ; Move Z Axis up little to prevent scratching of Heat Bed
G1 X5 Y20 Z0.3 F5000.0 ; Move over to prevent blob squish
M141 S0
G92 E0
G92 E0
G1 F900 E-3
;LAYER_COUNT:240
;LAYER:0
M107
G0 F6000 X93.58 Y88.422 Z0.2
G0 X91.7 Y93.5
;TYPE:SKIRT
G1 F900 E0
G1 X91.74 Y92.711 E0.02628
G1 X91.859 Y91.931 E0.05252
G1 X92.057 Y91.166 E0.0788
G1 X92.331 Y90.426 E0.10505
G1 X92.679 Y89.717 E0.13132
G1 X93.097 Y89.046 E0.15761
G1 X93.58 Y88.422 E0.18385
G1 X94.123 Y87.849 E0.21011
G1 X94.722 Y87.334 E0.23638
G1 X95.37 Y86.883 E0.26264
G1 X96.061 Y86.499 E0.28894
G1 X96.786 Y86.187 E0.31519
G1 X97.539 Y85.95 E0.34144
G1 X98.313 Y85.791 E0.36773
G1 X99.098 Y85.71 E0.39397
G1 X99.5 Y85.7 E0.40735
G1 X135.5 Y85.7 E1.60471
G1 X136.289 Y85.74 E1.63099
G1 X137.069 Y85.859 E1.65723
G1 X137.834 Y86.057 E1.68351
G1 X138.574 Y86.331 E1.70976
G1 X139.283 Y86.679 E1.73603
G1 X139.954 Y87.097 E1.76232
G1 X140.578 Y87.58 E1.78857
G1 X141.151 Y88.123 E1.81482
G1 X141.666 Y88.722 E1.8411
G1 X142.117 Y89.37 E1.86736
G1 X142.501 Y90.061 E1.89365
G1 X142.813 Y90.786 E1.9199
G1 X143.05 Y91.539 E1.94616
G1 X143.209 Y92.313 E1.97244
G1 X143.29 Y93.098 E1.99869
G1 X143.3 Y93.5 E2.01206
G1 X143.3 Y141.5 E3.60855
G1 X143.26 Y142.289 E3.63482
G1 X143.141 Y143.069 E3.66107
G1 X142.943 Y143.834 E3.68735
G1 X142.669 Y144.574 E3.71359
G1 X142.321 Y145.283 E3.73986
G1 X141.903 Y145.954 E3.76616
G1 X141.42 Y146.578 E3.7924
G1 X140.877 Y147.151 E3.81866
G1 X140.278 Y147.666 E3.84493
G1 X139.63 Y148.117 E3.87119
G1 X138.939 Y148.501 E3.89748
G1 X138.214 Y148.813 E3.92374
G1 X137.461 Y149.05 E3.94999
G1 X136.687 Y149.209 E3.97627
G1 X135.902 Y149.29 E4.00252
G1 X135.5 Y149.3 E4.0159
G1 X99.5 Y149.3 E5.21326
G1 X98.711 Y149.26 E5.23954
G1 X97.931 Y149.141 E5.26578
G1 X97.166 Y148.943 E5.29206
G1 X96.426 Y148.669 E5.31831
G1 X95.717 Y148.321 E5.34458
G1 X95.046 Y147.903 E5.37087
G1 X94.422 Y147.42 E5.39712
G1 X93.849 Y146.877 E5.42337
G1 X93.334 Y146.278 E5.44965
G1 X92.883 Y145.63 E5.4759
G1 X92.499 Y144.939 E5.5022
G1 X92.187 Y144.214 E5.52845
G1 X91.95 Y143.461 E5.5547
G1 X91.791 Y142.687 E5.58099
G1 X91.71 Y141.902 E5.60723
G1 X91.7 Y141.5 E5.62061
G1 X91.7 Y93.5 E7.21709
G0 F6000 X92.1 Y93.5
G1 F900 X92.14 Y92.732 E7.24267
G1 X92.259 Y91.972 E7.26826
G1 X92.457 Y91.229 E7.29383
G1 X92.731 Y90.51 E7.31943
G1 X93.078 Y89.824 E7.34499
G1 X93.494 Y89.177 E7.37058
G1 X93.975 Y88.577 E7.39616
G1 X94.516 Y88.03 E7.42174
G1 X95.111 Y87.542 E7.44734
G1 X95.753 Y87.119 E7.47291
G1 X96.436 Y86.764 E7.49851
G1 X97.151 Y86.483 E7.52406
G1 X97.893 Y86.277 E7.54968
G1 X98.651 Y86.149 E7.57524
G1 X99.5 Y86.1 E7.60353
G1 X135.5 Y86.1 E8.80089
G1 X136.268 Y86.14 E8.82647
G1 X137.028 Y86.259 E8.85206
G1 X137.771 Y86.457 E8.87763
G1 X138.49 Y86.731 E8.90322
G1 X139.176 Y87.078 E8.92879
G1 X139.823 Y87.494 E8.95438
G1 X140.423 Y87.975 E8.97995
G1 X140.97 Y88.516 E9.00554
G1 X141.458 Y89.111 E9.03114
G1 X141.881 Y89.753 E9.05671
G1 X142.236 Y90.436 E9.08231
G1 X142.517 Y91.151 E9.10786
G1 X142.723 Y91.893 E9.13347
G1 X142.851 Y92.651 E9.15904
G1 X142.9 Y93.5 E9.18733
G1 X142.9 Y141.5 E10.78381
G1 X142.86 Y142.268 E10.80939
G1 X142.741 Y143.028 E10.83498
G1 X142.543 Y143.771 E10.86055
G1 X142.269 Y144.49 E10.88614
G1 X141.922 Y145.176 E10.91171
G1 X141.506 Y145.823 E10.9373
G1 X141.025 Y146.423 E10.96287
G1 X140.484 Y146.97 E10.98846
G1 X139.889 Y147.458 E11.01406
G1 X139.247 Y147.881 E11.03963
G1 X138.564 Y148.236 E11.06523
G1 X137.849 Y148.517 E11.09078
G1 X137.107 Y148.723 E11.11639
G1 X136.349 Y148.851 E11.14196
G1 X135.5 Y148.9 E11.17025
G1 X99.5 Y148.9 E12.36761
G1 X98.732 Y148.86 E12.39319
G1 X97.972 Y148.741 E12.41878
G1 X97.229 Y148.543 E12.44435
G1 X96.51 Y148.269 E12.46994
G1 X95.824 Y147.922 E12.49551
G1 X95.177 Y147.506 E12.5211
G1 X94.577 Y147.025 E12.54667
G1 X94.03 Y146.484 E12.57226
G1 X93.542 Y145.889 E12.59786
G1 X93.119 Y145.247 E12.62343
G1 X92.764 Y144.564 E12.64903
G1 X92.483 Y143.849 E12.67458
G1 X92.277 Y143.107 E12.70019
G1 X92.149 Y142.349 E12.72576
G1 X92.1 Y141.5 E12.75405
G1 X92.1 Y93.5 E14.35053
G0 F6000 X92.5 Y93.5
G1 F900 X92.54 Y92.753 E14.37541
G1 X92.659 Y92.015 E14.40028
G1 X92.857 Y91.293 E14.42518
G1 X93.13 Y90.597 E14.45004
G1 X93.477 Y89.934 E14.47493
G1 X93.892 Y89.311 E14.49983
G1 X94.371 Y88.737 E14.52469
G1 X94.908 Y88.216 E14.54958
G1 X95.498 Y87.757 E14.57444
G1 X96.134 Y87.362 E14.59934
G1 X96.808 Y87.038 E14.62422
G1 X97.513 Y86.788 E14.6491
G1 X98.241 Y86.614 E14.67399
G1 X98.983 Y86.519 E14.69887
G1 X99.5 Y86.5 E14.71608
G1 X135.5 Y86.5 E15.91344
G1 X136.247 Y86.54 E15.93832
G1 X136.985 Y86.659 E15.96319
G1 X137.707 Y86.857 E15.98809
G1 X138.403 Y87.13 E16.01295
G1 X139.066 Y87.477 E16.03784
G1 X139.689 Y87.892 E16.06274
G1 X140.263 Y88.371 E16.08761
G1 X140.784 Y88.908 E16.11249
G1 X141.243 Y89.498 E16.13735
G1 X141.638 Y90.134 E16.16226
G1 X141.962 Y90.808 E16.18713
G1 X142.212 Y91.513 E16.21201
G1 X142.386 Y92.241 E16.2369
G1 X142.481 Y92.983 E16.26178
G1 X142.5 Y93.5 E16.27899
G1 X142.5 Y141.5 E17.87548
G1 X142.46 Y142.247 E17.90036
G1 X142.341 Y142.985 E17.92522
G1 X142.143 Y143.707 E17.95012
G1 X141.87 Y144.403 E17.97499
G1 X141.523 Y145.066 E17.99988
G1 X141.108 Y145.689 E18.02477
G1 X140.629 Y146.263 E18.04964
G1 X140.092 Y146.784 E18.07453
G1 X139.502 Y147.243 E18.09939
G1 X138.866 Y147.638 E18.12429
G1 X138.192 Y147.962 E18.14916
G1 X137.487 Y148.212 E18.17404
G1 X136.759 Y148.386 E18.19894
G1 X136.017 Y148.481 E18.22382
G1 X135.5 Y148.5 E18.24102
G1 X99.5 Y148.5 E19.43839
G1 X98.753 Y148.46 E19.46327
G1 X98.015 Y148.341 E19.48813
G1 X97.293 Y148.143 E19.51303
G1 X96.597 Y147.87 E19.5379
G1 X95.934 Y147.523 E19.56279
G1 X95.311 Y147.108 E19.58769
G1 X94.737 Y146.629 E19.61255
G1 X94.216 Y146.092 E19.63744
G1 X93.757 Y145.502 E19.6623
G1 X93.362 Y144.866 E19.6872
G1 X93.038 Y144.192 E19.71207
G1 X92.788 Y143.487 E19.73695
G1 X92.614 Y142.759 E19.76185
G1 X92.519 Y142.017 E19.78673
G1 X92.5 Y141.5 E19.80394
G1 X92.5 Y93.5 E21.40042
G0 F6000 X92.9 Y93.5
G1 F900 X92.94 Y92.775 E21.42457
G1 X93.059 Y92.058 E21.44875
G1 X93.257 Y91.359 E21.47291
G1 X93.53 Y90.686 E21.49706
G1 X93.875 Y90.047 E21.52122
G1 X94.289 Y89.45 E21.54538
G1 X94.765 Y88.902 E21.56952
G1 X95.299 Y88.409 E21.5937
G1 X95.884 Y87.979 E21.61784
G1 X96.513 Y87.615 E21.64202
G1 X97.178 Y87.322 E21.66619
G1 X97.871 Y87.104 E21.69035
G1 X98.583 Y86.964 E21.71448
G1 X99.5 Y86.9 E21.74506
G1 X135.5 Y86.9 E22.94242
G1 X136.225 Y86.94 E22.96657
G1 X136.942 Y87.059 E22.99075
G1 X137.641 Y87.257 E23.01491
G1 X138.314 Y87.53 E23.03906
G1 X138.953 Y87.875 E23.06322
G1 X139.55 Y88.289 E23.08738
G1 X140.098 Y88.765 E23.11152
G1 X140.591 Y89.299 E23.1357
G1 X141.021 Y89.884 E23.15984
G1 X141.385 Y90.513 E23.18402
G1 X141.678 Y91.178 E23.20819
G1 X141.896 Y91.871 E23.23235
G1 X142.036 Y92.583 E23.25648
G1 X142.1 Y93.5 E23.28706
G1 X142.1 Y141.5 E24.88354
G1 X142.06 Y142.225 E24.90769
G1 X141.941 Y142.942 E24.93187
G1 X141.743 Y143.641 E24.95603
G1 X141.47 Y144.314 E24.98019
G1 X141.125 Y144.953 E25.00434
G1 X140.711 Y145.55 E25.0285
G1 X140.235 Y146.098 E25.05265
G1 X139.701 Y146.591 E25.07682
G1 X139.116 Y147.021 E25.10097
G1 X138.487 Y147.385 E25.12514
G1 X137.822 Y147.678 E25.14931
G1 X137.129 Y147.896 E25.17347
G1 X136.417 Y148.036 E25.1976
G1 X135.5 Y148.1 E25.22818
G1 X99.5 Y148.1 E26.42554
G1 X98.775 Y148.06 E26.44969
G1 X98.058 Y147.941 E26.47387
G1 X97.359 Y147.743 E26.49803
G1 X96.686 Y147.47 E26.52219
G1 X96.047 Y147.125 E26.54634
G1 X95.45 Y146.711 E26.5705
G1 X94.902 Y146.235 E26.59464
G1 X94.409 Y145.701 E26.61882
G1 X93.979 Y145.116 E26.64297
G1 X93.615 Y144.487 E26.66714
G1 X93.322 Y143.822 E26.69131
G1 X93.104 Y143.129 E26.71547
G1 X92.964 Y142.417 E26.7396
G1 X92.9 Y141.5 E26.77018
G1 X92.9 Y93.5 E28.36666
G0 F6000 X93.3 Y93.5
G1 F900 X93.34 Y92.797 E28.39008
G1 X93.459 Y92.103 E28.4135
G1 X93.657 Y91.428 E28.4369
G1 X93.929 Y90.779 E28.4603
G1 X94.274 Y90.165 E28.48373
G1 X94.685 Y89.594 E28.50713
G1 X95.159 Y89.073 E28.53056
G1 X95.689 Y88.609 E28.55398
G1 X96.268 Y88.209 E28.57739
G1 X96.889 Y87.877 E28.60081
G1 X97.543 Y87.617 E28.62422
G1 X98.223 Y87.433 E28.64765
G1 X98.919 Y87.327 E28.67107
G1 X99.5 Y87.3 E28.69041
G1 X135.5 Y87.3 E29.88778
G1 X136.203 Y87.34 E29.9112
G1 X136.897 Y87.459 E29.93462
G1 X137.572 Y87.657 E29.95801
G1 X138.221 Y87.929 E29.98142
G1 X138.835 Y88.274 E30.00484
G1 X139.406 Y88.685 E30.02824
G1 X139.927 Y89.159 E30.05167
G1 X140.391 Y89.689 E30.0751
G1 X140.791 Y90.268 E30.0985
G1 X141.123 Y90.889 E30.12192
G1 X141.383 Y91.543 E30.14533
G1 X141.567 Y92.223 E30.16876
G1 X141.673 Y92.919 E30.19218
G1 X141.7 Y93.5 E30.21152
G1 X141.7 Y141.5 E31.80801
G1 X141.66 Y142.203 E31.83143
G1 X141.541 Y142.897 E31.85485
G1 X141.343 Y143.572 E31.87825
G1 X141.071 Y144.221 E31.90165
G1 X140.726 Y144.835 E31.92508
G1 X140.315 Y145.406 E31.94848
G1 X139.841 Y145.927 E31.9719
G1 X139.311 Y146.391 E31.99533
G1 X138.732 Y146.791 E32.01874
G1 X138.111 Y147.123 E32.04216
G1 X137.457 Y147.383 E32.06557
G1 X136.777 Y147.567 E32.089
G1 X136.081 Y147.673 E32.11241
G1 X135.5 Y147.7 E32.13176
G1 X99.5 Y147.7 E33.32912
G1 X98.797 Y147.66 E33.35254
G1 X98.103 Y147.541 E33.37596
G1 X97.428 Y147.343 E33.39936
G1 X96.779 Y147.071 E33.42276
G1 X96.165 Y146.726 E33.44619
G1 X95.594 Y146.315 E33.46959
G1 X95.073 Y145.841 E33.49301
G1 X94.609 Y145.311 E33.51644
G1 X94.209 Y144.732 E33.53985
G1 X93.877 Y144.111 E33.56327
G1 X93.617 Y143.457 E33.58668
G1 X93.433 Y142.777 E33.61011
G1 X93.327 Y142.081 E33.63352
G1 X93.3 Y141.5 E33.65287
G1 X93.3 Y93.5 E35.24936
G0 F6000 X93.7 Y93.5
G1 F900 X93.74 Y92.82 E35.27201
G1 X93.859 Y92.15 E35.29465
G1 X94.056 Y91.498 E35.3173
G1 X94.328 Y90.874 E35.33994
G1 X94.672 Y90.286 E35.3626
G1 X95.082 Y89.742 E35.38525
G1 X95.553 Y89.251 E35.40788
G1 X96.078 Y88.817 E35.43054
G1 X96.65 Y88.448 E35.45318
G1 X97.262 Y88.149 E35.47583
G1 X97.904 Y87.924 E35.49846
G1 X98.569 Y87.775 E35.52113
G1 X99.5 Y87.7 E35.55219
G1 X135.5 Y87.7 E36.74956
G1 X136.18 Y87.74 E36.77221
G1 X136.85 Y87.859 E36.79485
G1 X137.502 Y88.056 E36.8175
G1 X138.126 Y88.328 E36.84014
G1 X138.714 Y88.672 E36.8628
G1 X139.258 Y89.082 E36.88546
G1 X139.749 Y89.553 E36.90808
G1 X140.183 Y90.078 E36.93074
G1 X140.552 Y90.65 E36.95338
G1 X140.851 Y91.262 E36.97604
G1 X141.076 Y91.904 E36.99866
G1 X141.225 Y92.569 E37.02133
G1 X141.3 Y93.5 E37.05239
G1 X141.3 Y141.5 E38.64888
G1 X141.26 Y142.18 E38.67154
G1 X141.141 Y142.85 E38.69417
G1 X140.944 Y143.502 E38.71682
G1 X140.672 Y144.126 E38.73946
G1 X140.328 Y144.714 E38.76212
G1 X139.918 Y145.258 E38.78478
G1 X139.447 Y145.749 E38.80741
G1 X138.922 Y146.183 E38.83006
G1 X138.35 Y146.552 E38.8527
G1 X137.738 Y146.851 E38.87536
G1 X137.096 Y147.076 E38.89798
G1 X136.431 Y147.225 E38.92065
G1 X135.5 Y147.3 E38.95172
G1 X99.5 Y147.3 E40.14908
G1 X98.82 Y147.26 E40.17174
G1 X98.15 Y147.141 E40.19437
G1 X97.498 Y146.944 E40.21702
G1 X96.874 Y146.672 E40.23966
G1 X96.286 Y146.328 E40.26232
G1 X95.742 Y145.918 E40.28498
G1 X95.251 Y145.447 E40.30761
G1 X94.817 Y144.922 E40.33026
G1 X94.448 Y144.35 E40.3529
G1 X94.149 Y143.738 E40.37556
G1 X93.924 Y143.096 E40.39819
G1 X93.775 Y142.431 E40.42085
G1 X93.7 Y141.5 E40.45192
G1 X93.7 Y93.5 E42.0484
G0 F6000 X94.1 Y93.5
G1 F900 X94.14 Y92.844 E42.07026
G1 X94.259 Y92.198 E42.09211
G1 X94.456 Y91.571 E42.11397
G1 X94.728 Y90.973 E42.13582
G1 X95.07 Y90.412 E42.15767
G1 X95.478 Y89.897 E42.17953
G1 X95.945 Y89.435 E42.20137
G1 X96.465 Y89.034 E42.22322
G1 X97.029 Y88.698 E42.24505
G1 X97.631 Y88.434 E42.26691
G1 X98.26 Y88.244 E42.28877
G1 X98.907 Y88.133 E42.3106
G1 X99.5 Y88.1 E42.33036
G1 X135.5 Y88.1 E43.52772
G1 X136.156 Y88.14 E43.54958
G1 X136.802 Y88.259 E43.57143
G1 X137.429 Y88.456 E43.59329
G1 X138.027 Y88.728 E43.61514
G1 X138.588 Y89.07 E43.63699
G1 X139.103 Y89.478 E43.65884
G1 X139.565 Y89.945 E43.68069
G1 X139.966 Y90.465 E43.70253
G1 X140.302 Y91.029 E43.72437
G1 X140.566 Y91.631 E43.74623
G1 X140.756 Y92.26 E43.76808
G1 X140.867 Y92.907 E43.78992
G1 X140.9 Y93.5 E43.80967
G1 X140.9 Y141.5 E45.40616
G1 X140.86 Y142.156 E45.42802
G1 X140.741 Y142.802 E45.44987
G1 X140.544 Y143.429 E45.47172
G1 X140.272 Y144.027 E45.49357
G1 X139.93 Y144.588 E45.51543
G1 X139.522 Y145.103 E45.53728
G1 X139.055 Y145.565 E45.55913
G1 X138.535 Y145.966 E45.58097
G1 X137.971 Y146.302 E45.60281
G1 X137.369 Y146.566 E45.62467
G1 X136.74 Y146.756 E45.64652
G1 X136.093 Y146.867 E45.66836
G1 X135.5 Y146.9 E45.68811
G1 X99.5 Y146.9 E46.88548
G1 X98.844 Y146.86 E46.90733
G1 X98.198 Y146.741 E46.92918
G1 X97.571 Y146.544 E46.95104
G1 X96.973 Y146.272 E46.97289
G1 X96.412 Y145.93 E46.99474
G1 X95.897 Y145.522 E47.0166
G1 X95.435 Y145.055 E47.03845
G1 X95.034 Y144.535 E47.06029
G1 X94.698 Y143.971 E47.08212
G1 X94.434 Y143.369 E47.10399
G1 X94.244 Y142.74 E47.12584
G1 X94.133 Y142.093 E47.14767
G1 X94.1 Y141.5 E47.16743
G1 X94.1 Y93.5 E48.76391
G0 F6000 X94.5 Y93.5
G1 F900 X94.54 Y92.869 E48.78494
G1 X94.659 Y92.248 E48.80597
G1 X94.856 Y91.648 E48.82698
G1 X95.127 Y91.076 E48.84803
G1 X95.467 Y90.544 E48.86903
G1 X95.873 Y90.059 E48.89007
G1 X96.336 Y89.629 E48.91108
G1 X96.85 Y89.26 E48.93213
G1 X97.406 Y88.96 E48.95314
G1 X97.995 Y88.732 E48.97415
G1 X98.609 Y88.58 E48.99519
G1 X99.5 Y88.5 E49.02494
G1 X135.5 Y88.5 E50.2223
G1 X136.131 Y88.54 E50.24333
G1 X136.752 Y88.659 E50.26436
G1 X137.352 Y88.856 E50.28537
G1 X137.924 Y89.127 E50.30642
G1 X138.456 Y89.467 E50.32742
G1 X138.941 Y89.873 E50.34846
G1 X139.371 Y90.336 E50.36947
G1 X139.74 Y90.85 E50.39052
G1 X140.04 Y91.406 E50.41153
G1 X140.268 Y91.995 E50.43254
G1 X140.42 Y92.609 E50.45358
G1 X140.5 Y93.5 E50.48333
G1 X140.5 Y141.5 E52.07982
G1 X140.46 Y142.131 E52.10085
G1 X140.341 Y142.752 E52.12188
G1 X140.144 Y143.352 E52.14288
G1 X139.873 Y143.924 E52.16393
G1 X139.533 Y144.456 E52.18493
G1 X139.127 Y144.941 E52.20597
G1 X138.664 Y145.371 E52.22698
G1 X138.15 Y145.74 E52.24803
G1 X137.594 Y146.04 E52.26904
G1 X137.005 Y146.268 E52.29005
G1 X136.391 Y146.42 E52.31109
G1 X135.5 Y146.5 E52.34084
G1 X99.5 Y146.5 E53.53821
G1 X98.869 Y146.46 E53.55924
G1 X98.248 Y146.341 E53.58027
G1 X97.648 Y146.144 E53.60127
G1 X97.076 Y145.873 E53.62232
G1 X96.544 Y145.533 E53.64332
G1 X96.059 Y145.127 E53.66436
G1 X95.629 Y144.664 E53.68537
G1 X95.26 Y144.15 E53.70642
G1 X94.96 Y143.594 E53.72743
G1 X94.732 Y143.005 E53.74844
G1 X94.58 Y142.391 E53.76948
G1 X94.5 Y141.5 E53.79923
G1 X94.5 Y93.5 E55.39572
G0 F6000 X94.9 Y93.5
G1 F900 X94.94 Y92.895 E55.41588
G1 X95.059 Y92.301 E55.43603
G1 X95.255 Y91.727 E55.45621
G1 X95.526 Y91.184 E55.47639
G1 X95.865 Y90.681 E55.49657
G1 X96.267 Y90.228 E55.51671
G1 X96.725 Y89.831 E55.53687
G1 X97.232 Y89.498 E55.55704
G1 X97.778 Y89.234 E55.57722
G1 X98.354 Y89.045 E55.59738
G1 X98.95 Y88.933 E55.61755
G1 X99.5 Y88.9 E55.63587
G1 X135.5 Y88.9 E56.83324
G1 X136.105 Y88.94 E56.85341
G1 X136.699 Y89.059 E56.87355
G1 X137.273 Y89.255 E56.89373
G1 X137.816 Y89.526 E56.91391
G1 X138.319 Y89.865 E56.93409
G1 X138.772 Y90.267 E56.95423
G1 X139.169 Y90.725 E56.97439
G1 X139.502 Y91.232 E56.99457
G1 X139.766 Y91.778 E57.01474
G1 X139.955 Y92.354 E57.0349
G1 X140.067 Y92.95 E57.05507
G1 X140.1 Y93.5 E57.0734
G1 X140.1 Y141.5 E58.66988
G1 X140.06 Y142.105 E58.69005
G1 X139.941 Y142.699 E58.7102
G1 X139.745 Y143.273 E58.73037
G1 X139.474 Y143.816 E58.75056
G1 X139.135 Y144.319 E58.77073
G1 X138.733 Y144.772 E58.79088
G1 X138.275 Y145.169 E58.81103
G1 X137.768 Y145.502 E58.83121
