;FLAVOR:Marlin
;TIME:14363
;Filament used: 12.6274m
;Layer height: 0.2
;MINX:28.2
;MINY:101.403
;MINZ:0.35
;MAXX:206.8
;MAXY:191.003
;MAXZ:4.35
;Generated with Cura_SteamEngine main
M140 S85
M105
M190 S85
M104 S230
M105
M109 S230
M82 ;absolute extrusion mode
; Ender 3 Custom Start G-code
G92 E0 ; Reset Extruder
G28 ; Home all axes
G1 Z2.0 F3000 ; Move Z Axis up little to prevent scratching of Heat Bed
G1 X0.1 Y20 Z0.3 F5000.0 ; Move to start position
G1 X0.1 Y200.0 Z0.3 F1500.0 E15 ; Draw the first line
G1 X0.4 Y200.0 Z0.3 F5000.0 ; Move to side a little
G1 X0.4 Y20 Z0.3 F1500.0 E30 ; Draw the second line
G92 E0 ; Reset Extruder
G1 Z2.0 F3000 ; Move Z Axis up little to prevent scratching of Heat Bed
G1 X5 Y20 Z0.3 F5000.0 ; Move over to prevent blob squish
G92 E0
G92 E0
G1 F3000 E-7
;LAYER_COUNT:21
;LAYER:0
M107
G0 F9000 X33.286 Y101.89 Z0.35
G0 X28.2 Y109.203
;TYPE:SKIRT
G1 F3000 E0
G1 F1800 X28.24 Y108.414 E0.04598
G1 X28.359 Y107.634 E0.09191
G1 X28.557 Y106.869 E0.1379
G1 X28.831 Y106.129 E0.18383
G1 X29.179 Y105.42 E0.2298
G1 X29.597 Y104.749 E0.27582
G1 X30.08 Y104.125 E0.32175
G1 X30.623 Y103.552 E0.36769
G1 X31.222 Y103.037 E0.41367
G1 X31.87 Y102.586 E0.45963
G1 X32.561 Y102.202 E0.50564
G1 X33.286 Y101.89 E0.55158
G1 X34.039 Y101.653 E0.59753
G1 X34.813 Y101.494 E0.64352
G1 X35.598 Y101.413 E0.68945
G1 X36 Y101.403 E0.71286
G1 X188.107 Y101.403 E9.56628
G1 X188.896 Y101.443 E9.61227
G1 X190.014 Y101.633 E9.67827
G1 X190.885 Y101.889 E9.73111
G1 X191.854 Y102.304 E9.79247
G1 X192.048 Y102.403 E9.80515
G1 X198.107 Y102.403 E10.15781
G1 X198.896 Y102.443 E10.20379
G1 X200.014 Y102.633 E10.2698
G1 X200.885 Y102.889 E10.32264
G1 X201.854 Y103.304 E10.384
G1 X202.136 Y103.448 E10.40243
G1 X202.82 Y103.843 E10.4484
G1 X203.461 Y104.304 E10.49436
G1 X204.104 Y104.88 E10.54461
G1 X204.323 Y105.099 E10.56263
G1 X204.853 Y105.685 E10.60862
G1 X205.32 Y106.321 E10.65455
G1 X205.755 Y107.067 E10.70481
G1 X205.899 Y107.349 E10.72324
G1 X206.222 Y108.069 E10.76917
G1 X206.556 Y109.134 E10.83414
G1 X206.726 Y110.022 E10.88676
G1 X206.8 Y111.093 E10.94925
G1 X206.8 Y181.309 E15.03619
G1 X206.76 Y182.098 E15.08217
G1 X206.641 Y182.878 E15.1281
G1 X206.443 Y183.64 E15.17392
G1 X206.334 Y183.988 E15.19515
G1 X206.061 Y184.729 E15.24111
G1 X205.713 Y185.438 E15.28708
G1 X205.199 Y186.245 E15.34277
G1 X204.967 Y186.564 E15.36573
G1 X204.471 Y187.178 E15.41167
G1 X203.915 Y187.739 E15.45765
G1 X203.306 Y188.241 E15.50358
G1 X202.648 Y188.679 E15.54959
G1 X202.179 Y188.937 E15.58075
G1 X201.829 Y189.114 E15.60358
G1 X201.107 Y189.434 E15.64954
G1 X200.357 Y189.679 E15.69547
G1 X199.551 Y189.853 E15.74346
G1 X199.241 Y189.903 E15.76174
G1 X198.456 Y189.99 E15.80771
G1 X197.999 Y190.003 E15.83432
G1 X192.048 Y190.003 E16.1807
G1 X191.829 Y190.114 E16.19499
G1 X191.107 Y190.434 E16.24096
G1 X190.357 Y190.679 E16.28688
G1 X189.551 Y190.853 E16.33488
G1 X189.241 Y190.903 E16.35315
G1 X188.456 Y190.99 E16.39912
G1 X187.999 Y191.003 E16.42573
G1 X36 Y191.003 E25.27287
G1 X35.211 Y190.963 E25.31885
G1 X34.431 Y190.844 E25.36478
G1 X33.666 Y190.646 E25.41077
G1 X32.926 Y190.372 E25.4567
G1 X32.217 Y190.024 E25.50267
G1 X31.546 Y189.606 E25.54869
G1 X30.922 Y189.123 E25.59462
G1 X30.349 Y188.58 E25.64057
G1 X29.834 Y187.981 E25.68655
G1 X29.383 Y187.333 E25.7325
G1 X28.999 Y186.642 E25.77851
G1 X28.687 Y185.917 E25.82445
G1 X28.45 Y185.164 E25.8704
G1 X28.291 Y184.39 E25.91639
G1 X28.21 Y183.605 E25.96232
G1 X28.2 Y183.203 E25.98573
G1 X28.2 Y109.203 E30.29292
G0 F9000 X28.6 Y109.203
G1 F1800 X28.64 Y108.435 E30.33768
G1 X28.759 Y107.675 E30.38246
G1 X28.957 Y106.932 E30.42721
G1 X29.231 Y106.213 E30.472
G1 X29.578 Y105.527 E30.51674
G1 X29.994 Y104.88 E30.56151
G1 X30.475 Y104.28 E30.60627
G1 X31.016 Y103.733 E30.65105
G1 X31.611 Y103.245 E30.69584
G1 X32.253 Y102.822 E30.74059
G1 X32.936 Y102.467 E30.7854
G1 X33.651 Y102.186 E30.83011
G1 X34.393 Y101.98 E30.87493
G1 X35.151 Y101.852 E30.91968
G1 X36 Y101.803 E30.96918
G1 X188.107 Y101.803 E39.8226
G1 X188.875 Y101.843 E39.86736
G1 X189.923 Y102.022 E39.92925
G1 X190.772 Y102.273 E39.98078
G1 X191.672 Y102.661 E40.03782
G1 X191.95 Y102.803 E40.05599
G1 X198.107 Y102.803 E40.41436
G1 X198.875 Y102.843 E40.45912
G1 X199.923 Y103.022 E40.52101
G1 X200.772 Y103.273 E40.57254
G1 X201.672 Y103.661 E40.62958
G1 X201.954 Y103.805 E40.64801
G1 X202.62 Y104.189 E40.69276
G1 X203.243 Y104.641 E40.73756
G1 X203.822 Y105.162 E40.78289
G1 X204.041 Y105.381 E40.80092
G1 X204.555 Y105.953 E40.84568
G1 X205.008 Y106.575 E40.89047
G1 X205.398 Y107.249 E40.93579
G1 X205.542 Y107.531 E40.95422
G1 X205.856 Y108.233 E40.99899
G1 X206.169 Y109.23 E41.05981
G1 X206.333 Y110.097 E41.11117
G1 X206.4 Y111.093 E41.16927
G1 X206.4 Y181.309 E45.25621
G1 X206.36 Y182.077 E45.30097
G1 X206.241 Y182.837 E45.34575
G1 X206.062 Y183.521 E45.3869
G1 X205.953 Y183.869 E45.40813
G1 X205.685 Y184.59 E45.4529
G1 X205.344 Y185.279 E45.49764
G1 X204.876 Y186.009 E45.54812
G1 X204.644 Y186.328 E45.57107
G1 X204.16 Y186.926 E45.61585
G1 X203.616 Y187.47 E45.66063
G1 X203.019 Y187.955 E45.7054
G1 X202.375 Y188.375 E45.75015
G1 X201.999 Y188.58 E45.77508
G1 X201.649 Y188.757 E45.79791
G1 X200.945 Y189.068 E45.84271
G1 X200.213 Y189.304 E45.88747
G1 X199.487 Y189.459 E45.93068
G1 X199.177 Y189.509 E45.94896
G1 X198.413 Y189.591 E45.99368
G1 X197.999 Y189.603 E46.01779
G1 X191.954 Y189.603 E46.36964
G1 X191.649 Y189.757 E46.38953
G1 X190.945 Y190.068 E46.43432
G1 X190.213 Y190.304 E46.47909
G1 X189.487 Y190.459 E46.5223
G1 X189.177 Y190.509 E46.54058
G1 X188.413 Y190.591 E46.5853
G1 X187.999 Y190.603 E46.60941
G1 X36 Y190.603 E55.45654
G1 X35.232 Y190.563 E55.50131
G1 X34.472 Y190.444 E55.54608
G1 X33.729 Y190.246 E55.59084
G1 X33.01 Y189.972 E55.63562
G1 X32.324 Y189.625 E55.68037
G1 X31.677 Y189.209 E55.72514
G1 X31.077 Y188.728 E55.7699
G1 X30.53 Y188.187 E55.81468
G1 X30.042 Y187.592 E55.85947
G1 X29.619 Y186.95 E55.90422
G1 X29.264 Y186.267 E55.94902
G1 X28.983 Y185.552 E55.99374
G1 X28.777 Y184.81 E56.03856
G1 X28.649 Y184.052 E56.0833
G1 X28.6 Y183.203 E56.1328
G1 X28.6 Y109.203 E60.43999
G0 F9000 X29 Y109.203
G1 F1800 X29.04 Y108.456 E60.48353
G1 X29.159 Y107.718 E60.52704
G1 X29.357 Y106.996 E60.57062
G1 X29.63 Y106.3 E60.61413
G1 X29.977 Y105.637 E60.65769
G1 X30.392 Y105.014 E60.70126
G1 X30.871 Y104.44 E60.74478
G1 X31.408 Y103.919 E60.78832
G1 X31.998 Y103.46 E60.83183
G1 X32.634 Y103.065 E60.87541
G1 X33.308 Y102.741 E60.91894
G1 X34.013 Y102.491 E60.96248
G1 X34.741 Y102.317 E61.00604
G1 X35.483 Y102.222 E61.04958
G1 X36 Y102.203 E61.0797
G1 X188.107 Y102.203 E69.93312
G1 X188.854 Y102.243 E69.97666
G1 X189.833 Y102.412 E70.03449
G1 X190.658 Y102.657 E70.08458
G1 X191.49 Y103.017 E70.13735
G1 X191.845 Y103.203 E70.16067
G1 X198.107 Y103.203 E70.52515
G1 X198.854 Y103.243 E70.5687
G1 X199.833 Y103.412 E70.62652
G1 X200.658 Y103.657 E70.67661
G1 X201.49 Y104.017 E70.72938
G1 X201.772 Y104.161 E70.74781
G1 X202.42 Y104.536 E70.79139
G1 X203.023 Y104.978 E70.8349
G1 X203.539 Y105.445 E70.87541
G1 X203.758 Y105.664 E70.89344
G1 X204.258 Y106.221 E70.93701
G1 X204.695 Y106.827 E70.98049
G1 X205.042 Y107.431 E71.02104
G1 X205.186 Y107.713 E71.03947
G1 X205.49 Y108.396 E71.08298
G1 X205.781 Y109.328 E71.13981
G1 X205.939 Y110.171 E71.18973
G1 X206 Y111.093 E71.24352
G1 X206 Y181.309 E75.33045
G1 X205.96 Y182.056 E75.374
G1 X205.841 Y182.794 E75.41751
G1 X205.68 Y183.401 E75.45406
G1 X205.571 Y183.749 E75.47528
G1 X205.31 Y184.45 E75.51882
G1 X204.975 Y185.119 E75.56237
G1 X204.552 Y185.774 E75.60775
G1 X204.32 Y186.093 E75.63071
G1 X203.848 Y186.674 E75.67428
G1 X203.318 Y187.201 E75.71779
G1 X202.733 Y187.668 E75.76136
G1 X201.818 Y188.223 E75.82364
G1 X201.468 Y188.4 E75.84647
G1 X200.783 Y188.701 E75.89002
G1 X200.07 Y188.928 E75.93358
G1 X199.424 Y189.064 E75.972
G1 X199.114 Y189.114 E75.99028
G1 X197.999 Y189.203 E76.05538
G1 X191.851 Y189.203 E76.41323
G1 X191.468 Y189.4 E76.4383
G1 X190.783 Y189.701 E76.48185
G1 X190.07 Y189.928 E76.5254
G1 X189.424 Y190.064 E76.56383
G1 X189.114 Y190.114 E76.5821
G1 X187.999 Y190.203 E76.64721
G1 X36 Y190.203 E85.49434
G1 X35.253 Y190.163 E85.53789
G1 X34.515 Y190.044 E85.5814
G1 X33.793 Y189.846 E85.62497
G1 X33.097 Y189.573 E85.66849
G1 X32.434 Y189.226 E85.71204
G1 X31.811 Y188.811 E85.75561
G1 X31.237 Y188.332 E85.79913
G1 X30.716 Y187.795 E85.84268
G1 X30.257 Y187.205 E85.88619
G1 X29.862 Y186.569 E85.92977
G1 X29.538 Y185.895 E85.97329
G1 X29.288 Y185.19 E86.01683
G1 X29.114 Y184.462 E86.0604
G1 X29.019 Y183.72 E86.10394
G1 X29 Y183.203 E86.13405
G1 X29 Y109.203 E90.44124
G0 F9000 X29.4 Y109.203
G1 F1800 X29.44 Y108.478 E90.4835
G1 X29.559 Y107.761 E90.52581
G1 X29.757 Y107.062 E90.56809
G1 X30.03 Y106.389 E90.61036
G1 X30.375 Y105.75 E90.65263
G1 X30.789 Y105.153 E90.69492
G1 X31.265 Y104.605 E90.73717
G1 X31.799 Y104.112 E90.77947
G1 X32.384 Y103.682 E90.82173
G1 X33.013 Y103.318 E90.86403
G1 X33.678 Y103.025 E90.90633
G1 X34.371 Y102.807 E90.94861
G1 X35.083 Y102.667 E90.99085
G1 X36 Y102.603 E91.04435
G1 X188.107 Y102.603 E99.89777
G1 X188.832 Y102.643 E99.94004
G1 X189.741 Y102.801 E99.99374
G1 X190.543 Y103.041 E100.04246
G1 X191.309 Y103.373 E100.09106
G1 X191.759 Y103.603 E100.12047
G1 X198.107 Y103.603 E100.48996
G1 X198.832 Y103.643 E100.53222
G1 X199.741 Y103.801 E100.58592
G1 X200.543 Y104.041 E100.63465
G1 X201.309 Y104.373 E100.68324
G1 X201.591 Y104.517 E100.70167
G1 X202.218 Y104.882 E100.7439
G1 X202.802 Y105.315 E100.78622
G1 X203.256 Y105.728 E100.82194
G1 X203.475 Y105.947 E100.83997
G1 X203.959 Y106.488 E100.88222
G1 X204.382 Y107.079 E100.92452
G1 X204.686 Y107.612 E100.96024
G1 X204.83 Y107.894 E100.97867
G1 X205.124 Y108.559 E101.02099
G1 X205.392 Y109.426 E101.07381
G1 X205.545 Y110.245 E101.1223
G1 X205.6 Y111.093 E101.17176
G1 X205.6 Y181.309 E105.2587
G1 X205.56 Y182.034 E105.30096
G1 X205.441 Y182.751 E105.34327
G1 X205.298 Y183.282 E105.37528
G1 X205.189 Y183.63 E105.3965
G1 X204.934 Y184.31 E105.43877
G1 X204.606 Y184.958 E105.48105
G1 X204.229 Y185.539 E105.52136
G1 X203.997 Y185.858 E105.54432
G1 X203.538 Y186.421 E105.5866
G1 X203.02 Y186.93 E105.62887
G1 X202.449 Y187.379 E105.67115
G1 X201.638 Y187.866 E105.72621
G1 X201.288 Y188.043 E105.74904
G1 X200.622 Y188.334 E105.79134
G1 X199.929 Y188.551 E105.83361
G1 X199.36 Y188.669 E105.86743
G1 X199.05 Y188.719 E105.88571
G1 X197.999 Y188.803 E105.94708
G1 X191.763 Y188.803 E106.31005
G1 X191.288 Y189.043 E106.34102
G1 X190.622 Y189.334 E106.38333
G1 X189.929 Y189.551 E106.42559
G1 X189.36 Y189.669 E106.45942
G1 X189.05 Y189.719 E106.47769
G1 X187.999 Y189.803 E106.53906
G1 X36 Y189.803 E115.3862
G1 X35.275 Y189.763 E115.42846
G1 X34.558 Y189.644 E115.47077
G1 X33.859 Y189.446 E115.51305
G1 X33.186 Y189.173 E115.55533
G1 X32.547 Y188.828 E115.59759
G1 X31.95 Y188.414 E115.63988
G1 X31.402 Y187.938 E115.68213
G1 X30.909 Y187.404 E115.72443
G1 X30.479 Y186.819 E115.76669
G1 X30.115 Y186.19 E115.80899
G1 X29.822 Y185.525 E115.85129
G1 X29.604 Y184.832 E115.89357
G1 X29.464 Y184.12 E115.93581
G1 X29.4 Y183.203 E115.98931
G1 X29.4 Y109.203 E120.2965
G0 F9000 X29.8 Y109.203
G1 F1800 X29.84 Y108.5 E120.33748
G1 X29.959 Y107.806 E120.37847
G1 X30.157 Y107.131 E120.41941
G1 X30.429 Y106.482 E120.46037
G1 X30.774 Y105.868 E120.50136
G1 X31.185 Y105.297 E120.54231
G1 X31.659 Y104.776 E120.58331
G1 X32.189 Y104.312 E120.62431
G1 X32.768 Y103.912 E120.66527
G1 X33.389 Y103.58 E120.70626
G1 X34.043 Y103.32 E120.74722
G1 X34.723 Y103.136 E120.78823
G1 X35.419 Y103.03 E120.8292
G1 X36 Y103.003 E120.86306
G1 X188.107 Y103.003 E129.71648
G1 X188.81 Y103.043 E129.75747
G1 X189.652 Y103.191 E129.80723
G1 X190.428 Y103.425 E129.8544
G1 X191.127 Y103.729 E129.89877
G1 X191.409 Y103.873 E129.9172
G1 X191.631 Y104.003 E129.93217
G1 X198.107 Y104.003 E130.30911
G1 X198.81 Y104.043 E130.35009
G1 X199.652 Y104.191 E130.39985
G1 X200.428 Y104.425 E130.44703
G1 X201.127 Y104.729 E130.4914
G1 X201.409 Y104.873 E130.50983
G1 X202.016 Y105.228 E130.55076
G1 X202.58 Y105.65 E130.59176
G1 X202.973 Y106.011 E130.62282
G1 X203.192 Y106.23 E130.64084
G1 X203.661 Y106.755 E130.68182
G1 X204.067 Y107.33 E130.72279
G1 X204.33 Y107.794 E130.75383
G1 X204.474 Y108.076 E130.77226
G1 X204.758 Y108.721 E130.81328
G1 X205.005 Y109.523 E130.86213
G1 X205.151 Y110.318 E130.90917
G1 X205.2 Y111.093 E130.95437
G1 X205.2 Y181.309 E135.04131
G1 X205.16 Y182.012 E135.0823
G1 X205.041 Y182.706 E135.12328
G1 X204.917 Y183.162 E135.15079
G1 X204.808 Y183.51 E135.17201
G1 X204.559 Y184.169 E135.21302
G1 X204.238 Y184.795 E135.25396
G1 X203.905 Y185.304 E135.28937
G1 X203.673 Y185.623 E135.31233
G1 X203.227 Y186.168 E135.35332
G1 X202.723 Y186.658 E135.39423
G1 X202.166 Y187.089 E135.43522
G1 X201.457 Y187.509 E135.48319
G1 X201.107 Y187.686 E135.50602
G1 X200.462 Y187.967 E135.54697
G1 X199.789 Y188.174 E135.58795
G1 X199.296 Y188.274 E135.61723
G1 X198.986 Y188.324 E135.63551
G1 X197.999 Y188.403 E135.69314
G1 X191.636 Y188.403 E136.0635
G1 X191.457 Y188.509 E136.07561
G1 X191.107 Y188.686 E136.09844
G1 X190.462 Y188.967 E136.13939
G1 X189.789 Y189.174 E136.18037
G1 X189.296 Y189.274 E136.20965
G1 X188.986 Y189.324 E136.22793
G1 X187.999 Y189.403 E136.28556
G1 X36 Y189.403 E145.1327
G1 X35.297 Y189.363 E145.17368
G1 X34.603 Y189.244 E145.21466
G1 X33.928 Y189.046 E145.25561
G1 X33.279 Y188.774 E145.29657
G1 X32.665 Y188.429 E145.33756
G1 X32.094 Y188.018 E145.37851
G1 X31.573 Y187.544 E145.41951
G1 X31.109 Y187.014 E145.46051
G1 X30.709 Y186.435 E145.50147
G1 X30.377 Y185.814 E145.54245
G1 X30.117 Y185.16 E145.58342
G1 X29.933 Y184.48 E145.62442
G1 X29.827 Y183.784 E145.6654
G1 X29.8 Y183.203 E145.69925
G1 X29.8 Y109.203 E150.00644
G0 F9000 X30.2 Y109.203
G1 F1800 X30.24 Y108.523 E150.04609
G1 X30.359 Y107.853 E150.0857
G1 X30.556 Y107.201 E150.12534
G1 X30.828 Y106.577 E150.16496
G1 X31.172 Y105.989 E150.20461
G1 X31.582 Y105.445 E150.24426
G1 X32.053 Y104.954 E150.28386
G1 X32.578 Y104.52 E150.32351
G1 X33.15 Y104.151 E150.36313
G1 X33.762 Y103.852 E150.40278
G1 X34.404 Y103.627 E150.44237
G1 X35.069 Y103.478 E150.48204
G1 X36 Y103.403 E150.5364
G1 X188.107 Y103.403 E159.38983
G1 X188.787 Y103.443 E159.42948
G1 X189.563 Y103.581 E159.47535
G1 X190.312 Y103.809 E159.52092
G1 X190.945 Y104.085 E159.56112
G1 X191.227 Y104.229 E159.57955
G1 X191.523 Y104.403 E159.59953
G1 X198.107 Y104.403 E159.98275
G1 X198.787 Y104.443 E160.0224
G1 X199.563 Y104.581 E160.06828
G1 X200.312 Y104.809 E160.11385
G1 X200.945 Y105.085 E160.15404
G1 X201.227 Y105.229 E160.17247
G1 X201.814 Y105.574 E160.2121
G1 X202.357 Y105.985 E160.25174
G1 X202.69 Y106.294 E160.27818
G1 X202.909 Y106.513 E160.29621
G1 X203.362 Y107.022 E160.33587
G1 X203.751 Y107.58 E160.37546
G1 X203.974 Y107.976 E160.40192
G1 X204.118 Y108.258 E160.42035
G1 X204.391 Y108.882 E160.45999
G1 X204.617 Y109.621 E160.50497
G1 X204.757 Y110.39 E160.55047
G1 X204.8 Y111.093 E160.59146
G1 X204.8 Y181.309 E164.6784
G1 X204.76 Y181.989 E164.71805
G1 X204.641 Y182.659 E164.75765
G1 X204.535 Y183.043 E164.78084
G1 X204.426 Y183.391 E164.80207
G1 X204.185 Y184.027 E164.84165
G1 X203.87 Y184.631 E164.8813
G1 X203.582 Y185.068 E164.91177
G1 X203.35 Y185.387 E164.93473
G1 X202.918 Y185.914 E164.97439
G1 X202.427 Y186.386 E165.01403
G1 X201.884 Y186.797 E165.05367
G1 X201.276 Y187.152 E165.09465
G1 X200.926 Y187.329 E165.11748
G1 X200.302 Y187.6 E165.15707
G1 X199.65 Y187.796 E165.1967
G1 X199.233 Y187.879 E165.22145
G1 X198.923 Y187.929 E165.23973
G1 X197.999 Y188.003 E165.29368
G1 X191.531 Y188.003 E165.67015
G1 X191.276 Y188.152 E165.68734
G1 X190.926 Y188.329 E165.71017
G1 X190.302 Y188.6 E165.74977
G1 X189.65 Y188.796 E165.7894
G1 X189.233 Y188.879 E165.81414
G1 X188.923 Y188.929 E165.83242
G1 X187.999 Y189.003 E165.88637
G1 X36 Y189.003 E174.73351
G1 X35.32 Y188.963 E174.77316
G1 X34.65 Y188.844 E174.81277
G1 X33.998 Y188.647 E174.85241
G1 X33.374 Y188.375 E174.89203
G1 X32.786 Y188.031 E174.93168
G1 X32.242 Y187.621 E174.97133
G1 X31.751 Y187.15 E175.01094
G1 X31.317 Y186.625 E175.05058
